app/assets/hero-2.svg

<svg height="424" viewBox="0 0 354 424" width="354" xmlns="http://www.w3.org/2000/svg"><g fill="none" fill-rule="evenodd" transform="matrix(.95630476 -.2923717 .2923717 .95630476 -78.267074 -5.089281)"><g transform="matrix(-.9781476 .20791169 .20791169 .9781476 183.277664 .805664)"><g fill="#b28b67" transform="translate(60.529412 33.682692)"><path d="m0 79.3173077 10.8994299-51.0673077h7.8609485l7.1807981 51.0673077z"/><path d="m38.6526787 53.5266414c-8.0950269 2.0975209-39.13343091-13.9484692-37.51042781-37.2009078 1.6230031-23.25243865 33.82270501-18.13719842 40.08621371-6.40136418 6.2635086 11.73583428 5.519241 41.50475108-2.5757859 43.60227198z"/></g><path d="m67.4666642 76.3918247c-3.2558729-14.5607686-12.5313237-24.4863565-11.1147399-30.9943974.9443892-4.3386939 3.4614696-7.0367753 7.5512411-8.0942442 2.1151911-8.6017254 8.9371165-12.2603745 20.465776-10.9759473 17.2929896 1.9266409 27.8476676 9.1458097 23.2896236 25.0311315-4.189914 0-9.248036-1.5232087-16.2423672 1.0865385-2.2192731.8280622-3.8065622 3.395956-4.7618674 7.7036811h-3.1607107c-3.0676028-5.1120921-6.0922788-6.9906464-9.074028-5.635663-2.9817493 1.3549834-3.6595493 4.6462435-2.0334003 9.8737804l-1.5569695 12.0051204z" fill="#101030"/></g><g transform="matrix(-1 0 0 1 342 192)"><path d="m140.833333 0 80.498614 134.622466 60.350801 113.811948h12.999027l-101.118613-248.434414z" fill="#997659"/><path d="m2.96094256 27.1399147c-1.25265023 3.294367-1.87897535 5.7522608-1.87897535 7.3736814 0 1.9385327.32503832 4.767334.97511496 8.4864039h61.02491153c1.5858212-5.2089047.6703932-8.0210247-2.7462837-8.4363601-3.416677-.4153354-6.2549686-.79035-8.5148748-1.1250438l-28.444202-12.5989119c-.5049668-.2236671-1.0956413.0043714-1.3193084.5093382-.0031947.0072125-.0063039.0144626-.009327.0217487l-1.8550131 4.4708261c-3.1629493 1.4662539-5.7331739 2.1993808-7.710674 2.1993808-1.6366824 0-3.90860265-.6690142-6.81576064-2.0070425l-.00000057.0000012c-1.00339374-.461815-2.19118013-.0227787-2.65299516.980615-.01895292.0411794-.03650031.0829912-.05261177.125363z" fill="#e4e4e4" transform="translate(270.833333 215.65272)"/><path d="m264.921645 230.2097 25.068394-7.585774c-10.983147-32.84425-24.444552-68.988143-40.384217-108.431679-15.939665-39.4435357-33.058272-77.5076181-51.355822-114.192247h-70.802254c20.34294 46.4043711 41.909185 88.568699 64.698735 126.492984 22.789549 37.924284 47.047937 72.496523 72.775164 103.716716z" fill="#db2721"/><path d="m135.543014 0c-7.597558 47.307259-22.251165 107.747759-23.634071 109.612971-.921937 1.243474-34.111904 12.368659-99.5699016 33.375554l2.8079467 11.466437c78.0585085-11.266133 119.1886859-20.006864 123.3905309-26.22219 6.302768-9.322989 37.77334-82.9748118 49.962481-128.232772z" fill="#b28b67"/><path d="m35.3486334 133.076668 4.9458924 18.467525c58.3832164 5.12222 94.1559022 1.421095 107.3180582-11.103376 13.162156-12.52447 28.163129-59.3380761 45.002918-140.440817h-67.514177c-10.669294 66.4122319-16.634124 101.012304-17.894489 103.800216-1.260366 2.787912-25.2131 12.546729-71.8582026 29.276452z" fill="#ff4133"/><path d="m2.96094256 27.1399147c-1.25265023 3.294367-1.87897535 5.7522608-1.87897535 7.3736814 0 1.9385327.32503832 4.767334.97511496 8.4864039h61.02491153c1.5858212-5.2089047.6703932-8.0210247-2.7462837-8.4363601-3.416677-.4153354-6.2549686-.79035-8.5148748-1.1250438l-28.444202-12.5989119c-.5049668-.2236671-1.0956413.0043714-1.3193084.5093382-.0031947.0072125-.0063039.0144626-.009327.0217487l-1.8550131 4.4708261c-3.1629493 1.4662539-5.7331739 2.1993808-7.710674 2.1993808-1.6366824 0-3.90860265-.6690142-6.81576064-2.0070425l-.00000057.0000012c-1.00339374-.461815-2.19118013-.0227787-2.65299516.980615-.01895292.0411794-.03650031.0829912-.05261177.125363z" fill="#e4e4e4" transform="matrix(.17364818 .98480775 -.98480775 .17364818 42.14841 130.583751)"/></g><g transform="matrix(-.93358043 .35836795 .35836795 .93358043 258.605726 51.074416)"><path d="m207.75 70.5496233 42.721706-5.8176271c8.546074-4.7455291 16.408048-7.9581694 23.585921-9.6379207 2.019928-.0588769 5.233246.6741856.446293 4.6581692-4.786952 3.9839836-9.64399 8.3911013-8.7911 10.5172838s5.304695 1.3351002 6.042183 4.6053497c.491659 2.1801663-6.73335 2.5344215-21.675026 1.0627658l-34.665004 13.72011z" fill="#997659"/><path d="m133.61068 10.453014 18.5883-.3877753c8.147963 40.7102537 35.211253 64.5070169 89.948957 50.8603555l12.005876 52.2933528c-51.293893 11.232428-98.606518-5.522439-112.842901-60.8484151-3.68535-14.3221473-6.914574-29.2801519-7.700232-41.9175179z" fill="#afb9c5" transform="matrix(.9961947 .08715574 -.08715574 .9961947 6.254051 -16.657106)"/><path d="m85.316597 84.7099684c-29.5483889 50.0508566-45.8015097 76.9504266-48.7593621 80.6987096-2.1690246 2.748657-15.3741552 9.693061-24.2945807 13.36853-3.58053777 1.475284-2.86884174 4.488366-1.8428604 5.466516 8.3451024 7.956058 16.1540997 2.305543 25.285791.211975 10.0045522-2.293684 6.6971478 9.484565 14.6007852 7.794326-1.1621674-5.430134-4.3832071-15.759707-.6462468-21.298306 1.6608713-2.4616 21.2655099-29.537843 58.8139158-81.2287295z" fill="#b28b67" transform="matrix(.9781476 -.20791169 .20791169 .9781476 -27.518979 15.301049)"/><path d="m95.21875 120.983957h85.480469c-7.898801-35.4845307-23.298725-66.2771454-23.298725-114.54018231l-28.183003-6.44377469c-20.264772 31.1569845-29.9968937 69.5175409-33.998741 120.983957z" fill="#c5cfd6"/><path d="m95.21875 120.983957h24.997568c-5.94685-23.6563538-5.831876-62.183983.344923-115.58288748-17.963806 31.15698448-21.7950339 64.11647138-25.342491 115.58288748z" fill="#000" fill-opacity=".1"/><path d="m127.437176 0c-41.4913134 37.4444951-68.6770737 90.3749764-81.5572811 158.791444h56.8397561c1.522986-57.608 9.275494-108.45931 31.913774-152.55393095l-5.35541-6.23751305z" fill="#c5cfd6"/></g></g></svg>

<?xml version="1.0" encoding="UTF-8"?>
<svg width="354px" height="424px" viewBox="0 0 354 424" version="1.1" xmlns="http://www.w3.org/2000/svg" xmlns:xlink="http://www.w3.org/1999/xlink">
    <!-- Generator: Sketch 52.4 (67378) - http://www.bohemiancoding.com/sketch -->
    <title>hero-2</title>
    <desc>Created with Sketch.</desc>
    <g id="Sited" stroke="none" stroke-width="1" fill="none" fill-rule="evenodd">
        <g id="Scene" transform="translate(-49.000000, -40.000000)">
            <g id="hero-2" transform="translate(200.190859, 200.561880) rotate(-17.000000) translate(-200.190859, -200.561880) translate(29.190859, -24.938120)">
                <g id="Head/Front/Short-2" transform="translate(123.130826, 71.352513) scale(-1, 1) rotate(12.000000) translate(-123.130826, -71.352513) translate(49.630826, 14.852513)">
                    <g id="Head" stroke-width="1" transform="translate(60.529412, 33.682692)" fill="#B28B67">
                        <polygon id="Neck" points="1.02526892e-16 79.3173077 10.8994299 28.25 18.7603784 28.25 25.9411765 79.3173077"></polygon>
                        <path d="M38.6526787,53.5266414 C30.5576518,55.6241623 -0.480752208,39.5781722 1.14225089,16.3257336 C2.76525399,-6.92670505 34.9649559,-1.81146482 41.2284646,9.92436942 C47.4919732,21.6602037 46.7477056,51.4291205 38.6526787,53.5266414 Z"></path>
                    </g>
                    <path d="M67.4666642,76.3918247 C64.2107913,61.8310561 54.9353405,51.9054682 56.3519243,45.3974273 C57.2963135,41.0587334 59.8133939,38.360652 63.9031654,37.3031831 C66.0183565,28.7014577 72.8402819,25.0428086 84.3689414,26.3272358 C101.661931,28.2538767 112.216609,35.4730455 107.658565,51.3583673 C103.468651,51.3583673 98.410529,49.8351586 91.4161978,52.4449058 C89.1969247,53.272968 87.6096356,55.8408618 86.6543304,60.1485869 L83.4936197,60.1485869 C80.4260169,55.0364948 77.4013409,53.1579405 74.4195917,54.5129239 C71.4378424,55.8679073 70.7600424,59.1591674 72.3861914,64.3867043 L70.8292219,76.3918247 L67.4666642,76.3918247 Z" id="Hair" fill="#101030"></path>
                </g>
                <g id="Bottom/Standing/Jogging" transform="translate(179.500000, 321.500000) scale(-1, 1) translate(-179.500000, -321.500000) translate(17.000000, 192.000000)">
                    <polygon id="Leg" fill="#997659" points="140.833333 0 221.331947 134.622466 281.682748 248.434414 294.681775 248.434414 193.563162 5.51635214e-13"></polygon>
                    <g id="Accessories/Shoe/Flat-Sneaker" transform="translate(270.833333, 215.652720)" fill="#E4E4E4">
                        <path d="M2.96094256,27.1399147 C1.70829233,30.4342817 1.08196721,32.8921755 1.08196721,34.5135961 C1.08196721,36.4521288 1.40700553,39.2809301 2.05708217,43 C4.3204911,43 24.6621283,43 63.0819937,43 C64.6678149,37.7910953 63.7523869,34.9789753 60.33571,34.5636399 C56.919033,34.1483045 54.0807414,33.7732899 51.8208352,33.4385961 L23.3766332,20.8396842 C22.8716664,20.6160171 22.2809919,20.8440556 22.0573248,21.3490224 C22.0541301,21.3562349 22.0510209,21.363485 22.0479978,21.3707711 L20.1929847,25.8415972 C17.0300354,27.3078511 14.4598108,28.040978 12.4823107,28.040978 C10.8456283,28.040978 8.57370805,27.3719638 5.66655006,26.0339355 L5.66654949,26.0339367 C4.66315575,25.5721217 3.47536936,26.011158 3.01355433,27.0145517 C2.99460141,27.0557311 2.97705402,27.0975429 2.96094256,27.1399147 Z" id="shoe"></path>
                    </g>
                    <path d="M264.921645,230.2097 L289.990039,222.623926 C279.006892,189.779676 265.545487,153.635783 249.605822,114.192247 C233.666157,74.7487113 216.54755,36.6846289 198.25,2.84217094e-14 L127.447746,2.84217094e-14 C147.790686,46.4043711 169.356931,88.568699 192.146481,126.492984 C214.93603,164.417268 239.194418,198.989507 264.921645,230.2097 Z" id="Pant" fill="#DB2721"></path>
                    <path d="M135.543014,2.84217094e-14 C127.945456,47.307259 113.291849,107.747759 111.908943,109.612971 C110.987006,110.856445 77.797039,121.98163 12.3390414,142.988525 L15.1469881,154.454962 C93.2054966,143.188829 134.335674,134.448098 138.537519,128.232772 C144.840287,118.909783 176.310859,45.2579602 188.5,2.84217094e-14 L135.543014,2.84217094e-14 Z" id="Leg" fill="#B28B67"></path>
                    <path d="M35.3486334,133.076668 L40.2945258,151.544193 C98.6777422,156.666413 134.450428,152.965288 147.612584,140.440817 C160.77474,127.916347 175.775713,81.1027409 192.615502,-1.13686838e-13 L125.101325,-1.13686838e-13 C114.432031,66.4122319 108.467201,101.012304 107.206836,103.800216 C105.94647,106.588128 81.993736,116.346945 35.3486334,133.076668 Z" id="Pant" fill="#FF4133"></path>
                    <g id="Accessories/Shoe/Flat-Sneaker" transform="translate(26.541667, 166.887029) rotate(80.000000) translate(-26.541667, -166.887029) translate(-6.500000, 145.213389)" fill="#E4E4E4">
                        <path d="M2.96094256,27.1399147 C1.70829233,30.4342817 1.08196721,32.8921755 1.08196721,34.5135961 C1.08196721,36.4521288 1.40700553,39.2809301 2.05708217,43 C4.3204911,43 24.6621283,43 63.0819937,43 C64.6678149,37.7910953 63.7523869,34.9789753 60.33571,34.5636399 C56.919033,34.1483045 54.0807414,33.7732899 51.8208352,33.4385961 L23.3766332,20.8396842 C22.8716664,20.6160171 22.2809919,20.8440556 22.0573248,21.3490224 C22.0541301,21.3562349 22.0510209,21.363485 22.0479978,21.3707711 L20.1929847,25.8415972 C17.0300354,27.3078511 14.4598108,28.040978 12.4823107,28.040978 C10.8456283,28.040978 8.57370805,27.3719638 5.66655006,26.0339355 L5.66654949,26.0339367 C4.66315575,25.5721217 3.47536936,26.011158 3.01355433,27.0145517 C2.99460141,27.0557311 2.97705402,27.0975429 2.96094256,27.1399147 Z" id="shoe"></path>
                    </g>
                </g>
                <g id="Body/Long-Sleeve" transform="translate(165.500000, 195.000000) scale(-1, 1) rotate(21.000000) translate(-165.500000, -195.000000) translate(27.000000, 94.000000)">
                    <path d="M207.75,70.5496233 L250.471706,64.7319962 C259.01778,59.9864671 266.879754,56.7738268 274.057627,55.0940755 C276.077555,55.0351986 279.290873,55.7682611 274.50392,59.7522447 C269.716968,63.7362283 264.85993,68.143346 265.71282,70.2695285 C266.56571,72.395711 271.017515,71.6046287 271.755003,74.8748782 C272.246662,77.0550445 265.021653,77.4092997 250.079977,75.937644 L215.414973,89.657754 L207.75,70.5496233 Z" id="Arm" fill="#997659"></path>
                    <path d="M133.61068,10.453014 L152.19898,10.0652387 C160.346943,50.7754924 187.410233,74.5722556 242.147937,60.9255942 L254.153813,113.218947 C202.85992,124.451375 155.547295,107.696508 141.310912,52.3705319 C137.625562,38.0483846 134.396338,23.09038 133.61068,10.453014 Z" id="Clothes-Back" fill="#AFB9C5" transform="translate(193.882247, 63.292104) rotate(5.000000) translate(-193.882247, -63.292104) "></path>
                    <path d="M85.316597,84.7099684 C55.7682081,134.760825 39.5150873,161.660395 36.5572349,165.408678 C34.3882103,168.157335 21.1830797,175.101739 12.2626542,178.777208 C8.68211643,180.252492 9.39381246,183.265574 10.4197938,184.243724 C18.7648962,192.199782 26.5738935,186.549267 35.7055848,184.455699 C45.710137,182.162015 42.4027326,193.940264 50.30637,192.250025 C49.1442026,186.819891 45.9231629,176.490318 49.6601232,170.951719 C51.3209945,168.490119 70.9256331,141.413876 108.474039,89.7229895 L85.316597,84.7099684 Z" id="Arm" fill="#B28B67" transform="translate(59.030388, 138.563320) rotate(-12.000000) translate(-59.030388, -138.563320) "></path>
                    <path d="M95.21875,120.983957 L180.699219,120.983957 C172.800418,85.4994263 157.400494,54.7068116 157.400494,6.44377469 L129.217491,0 C108.952719,31.1569845 99.2205973,69.5175409 95.21875,120.983957 Z" id="Clothes-Body" fill="#C5CFD6"></path>
                    <path d="M95.21875,120.983957 L120.216318,120.983957 C114.269468,97.3276032 114.384442,58.799974 120.561241,5.40106952 C102.597435,36.558054 98.7662071,69.5175409 95.21875,120.983957 Z" id="Clothes-Body" fill-opacity="0.1" fill="#000000"></path>
                    <path d="M127.437176,0 C85.9458626,37.4444951 58.7601023,90.3749764 45.8798949,158.791444 L102.719651,158.791444 C104.242637,101.183444 111.995145,50.332134 134.633425,6.23751305 L129.278015,0 L127.437176,0 Z" id="Clothes-Front" fill="#C5CFD6"></path>
                </g>
            </g>
        </g>
    </g>
</svg>
